assets/icons/uE011-grid.svg

<svg xmlns="http://www.w3.org/2000/svg" width="896" height="1232" viewBox="0 0 896 1232"><path d="M896 284q0 47-36 80 36 33 36 80v120q0 47-36 80 36 33 36 80v120q0 44-32 76t-76 32H668q-47 0-80-36-33 36-80 36H388q-47 0-80-36-33 36-80 36H108q-44 0-76-32T0 844V724q0-47 36-80-36-33-36-80V444q0-47 36-80-36-33-36-80V164q0-44 32-76t76-32h120q47 0 80 36 33-36 80-36h120q47 0 80 36 33-36 80-36h120q44 0 76 32t32 76v120zM280 844V724q0-22-15-37t-37-15H108q-22 0-37 15t-15 37v120q0 22 15 37t37 15h120q22 0 37-15t15-37zm0-280V444q0-22-15-37t-37-15H108q-22 0-37 15t-15 37v120q0 22 15 37t37 15h120q22 0 37-15t15-37zm0-280V164q0-22-15-37t-37-15H108q-22 0-37 15t-15 37v120q0 22 15 37t37 15h120q22 0 37-15t15-37zm280 560V724q0-22-15-37t-37-15H388q-22 0-37 15t-15 37v120q0 22 15 37t37 15h120q22 0 37-15t15-37zm0-280V444q0-22-15-37t-37-15H388q-22 0-37 15t-15 37v120q0 22 15 37t37 15h120q22 0 37-15t15-37zm0-280V164q0-22-15-37t-37-15H388q-22 0-37 15t-15 37v120q0 22 15 37t37 15h120q22 0 37-15t15-37zm280 560V724q0-22-15-37t-37-15H668q-22 0-37 15t-15 37v120q0 22 15 37t37 15h120q22 0 37-15t15-37zm0-280V444q0-22-15-37t-37-15H668q-22 0-37 15t-15 37v120q0 22 15 37t37 15h120q22 0 37-15t15-37zm0-280V164q0-22-15-37t-37-15H668q-22 0-37 15t-15 37v120q0 22 15 37t37 15h120q22 0 37-15t15-37z"/></svg>

<?xml version="1.0" encoding="UTF-8" standalone="no"?><svg   xmlns:svg="http://www.w3.org/2000/svg"   xmlns="http://www.w3.org/2000/svg"   version="1.1"   width="896"   height="1232"   viewBox="0 0 896 1232">  <path     d="M896 284Q896 331 860 364Q896 397 896 444V564Q896 611 860 644Q896 677 896 724V844Q896 888 864 920T788 952H668Q621 952 588 916Q555 952 508 952H388Q341 952 308 916Q275 952 228 952H108Q64 952 32 920T0 844V724Q0 677 36 644Q0 611 0 564V444Q0 397 36 364Q0 331 0 284V164Q0 120 32 88T108 56H228Q275 56 308 92Q341 56 388 56H508Q555 56 588 92Q621 56 668 56H788Q832 56 864 88T896 164V284zM280 844V724Q280 702 265 687T228 672H108Q86 672 71 687T56 724V844Q56 866 71 881T108 896H228Q250 896 265 881T280 844zM280 564V444Q280 422 265 407T228 392H108Q86 392 71 407T56 444V564Q56 586 71 601T108 616H228Q250 616 265 601T280 564zM280 284V164Q280 142 265 127T228 112H108Q86 112 71 127T56 164V284Q56 306 71 321T108 336H228Q250 336 265 321T280 284zM560 844V724Q560 702 545 687T508 672H388Q366 672 351 687T336 724V844Q336 866 351 881T388 896H508Q530 896 545 881T560 844zM560 564V444Q560 422 545 407T508 392H388Q366 392 351 407T336 444V564Q336 586 351 601T388 616H508Q530 616 545 601T560 564zM560 284V164Q560 142 545 127T508 112H388Q366 112 351 127T336 164V284Q336 306 351 321T388 336H508Q530 336 545 321T560 284zM840 844V724Q840 702 825 687T788 672H668Q646 672 631 687T616 724V844Q616 866 631 881T668 896H788Q810 896 825 881T840 844zM840 564V444Q840 422 825 407T788 392H668Q646 392 631 407T616 444V564Q616 586 631 601T668 616H788Q810 616 825 601T840 564zM840 284V164Q840 142 825 127T788 112H668Q646 112 631 127T616 164V284Q616 306 631 321T668 336H788Q810 336 825 321T840 284z"     id="icon176" /></svg>
